src/assets/duotone/DocumentLike.svg

<svg width="24" height="24" viewBox="0 0 24 24"  xmlns="http://www.w3.org/2000/svg">
<path opacity="0.4" d="M21 7V17C21 20 19.5 22 16 22H8C4.5 22 3 20 3 17V7C3 4 4.5 2 8 2H16C19.5 2 21 4 21 7Z" />
<path d="M18.5 9.25H16.5C14.98 9.25 13.75 8.02 13.75 6.5V4.5C13.75 4.09 14.09 3.75 14.5 3.75C14.91 3.75 15.25 4.09 15.25 4.5V6.5C15.25 7.19 15.81 7.75 16.5 7.75H18.5C18.91 7.75 19.25 8.09 19.25 8.5C19.25 8.91 18.91 9.25 18.5 9.25Z" />
<path d="M7.48014 15.4901C7.15014 14.4601 7.54011 13.1901 8.61011 12.8401C9.18011 12.6601 9.88012 12.8101 10.2701 13.3601C10.6401 12.7901 11.3701 12.6601 11.9301 12.8401C13.0101 13.1901 13.3901 14.4601 13.0701 15.4901C12.5601 17.1201 10.7701 17.9701 10.2701 17.9701C9.78012 17.9601 8.01014 17.1301 7.48014 15.4901Z" />
</svg>

<?xml version="1.0" encoding="UTF-8"?>
<svg width="24" height="24" viewBox="0 0 24 24" xmlns="http://www.w3.org/2000/svg">
 <path d="m21 7v10c0 3-1.5 5-5 5h-8c-3.5 0-5-2-5-5v-10c0-3 1.5-5 5-5h8c3.5 0 5 2 5 5z" opacity=".4"/>
 <path d="m18.5 9.25h-2c-1.52 0-2.75-1.23-2.75-2.75v-2c0-0.41 0.34-0.75 0.75-0.75s0.75 0.34 0.75 0.75v2c0 0.69 0.56 1.25 1.25 1.25h2c0.41 0 0.75 0.34 0.75 0.75s-0.34 0.75-0.75 0.75z"/>
 <path d="m7.4801 15.49c-0.33-1.03 0.05997-2.3 1.13-2.65 0.57-0.18 1.27-0.03 1.66 0.52 0.37-0.57 1.1-0.7 1.66-0.52 1.08 0.35 1.46 1.62 1.14 2.65-0.51 1.63-2.3 2.48-2.8 2.48-0.48998-0.01-2.26-0.84-2.79-2.48z"/>
</svg>
